X: 1
T: Open House
M: 2/4
L: 1/8
R: polka
K: Dmaj
d>f ed | BA FE | DE FA | BA FA |
d>f ed | BA FE | FA EA | D4 :|
A>F ED | BA F>B | AF ED | EF G>B |
AF ED | BA F>B | AF ED | D4:|
